X:1
T:Title
%%score { ( 1 4 ) | ( 2 3 ) }
L:1/8
Q:1/4=144
M:3/4
K:F
V:1 treble nm="Grand Piano"
V:4 treble 
V:2 bass 
V:3 bass 
V:1
 [A,CF]4 [CFA]2 | [B,DG]4 [DGB]2 | [CFA]4 [B,EG]2 | F4 z2 | c4 d2 | c4 A2 | A3 G [A,F]2 | %7
w: George~J.~Kurzenknabe *|||||||
 [CEG]4 z2 | [A,CF]4 [CFA]2 | [B,DG]4 [DGB]2 | [CFA]4 [B,EG]2 | [A,F]4 z2 | %12
w: |||||
 [DF]3 E[K:bass] [F,B,D]2 | [F,A,C]4[K:treble] [A,CF]2 | [CFA]4 [B,EG]2 | [A,F]4 z2 | %16
w: ||||
 [CEc]4 [CEG]2 | [CFc]4 [CFA]2 | [EG]3 F [CEG]2 | A4 z2 | A4 B2 | c4 A2 | z2 z G [CFA]2 | %23
w: |||||||
 [CEG]4 z2 | [A,CF]4 [CFA]2 | [B,DG]4 [DGB]2 | [CFA]4 [B,EG]2 | [A,F]4 z2 | [DF]4 z2 | C4 F2 | %30
w: |||||||
 [FA]4 [EG]2 | [A,F]4 z2 |] %32
w: ||
V:2
 F,4 F,2 | B,,4 B,,2 | C,4 C,2 | [F,A,]4 z2 | [F,A,F]4 [F,B,F]2 | [F,A,F]4 [F,CF]2 | C4 z2 | %7
 C,4 z2 | F,4 F,2 | B,,4 B,,2 | C,4 C,2 | D,4 z2 | z2 z C B,,2 | C,4 C,2 | C,4 C,2 | F,4 z2 | %16
 C,4 B,2 | A,4 F,2 | z2 z D C,2 | [F,CF]4 z2 | [F,F]4 [F,G,F]2 | [F,A,F]4 [F,CF]2 | A,4 z2 | %23
 C,4 z2 | F,4 F,2 | B,,4 B,,2 | C,4 C,2 | D,4 z2 | z2 z C [B,,F,B,]2 | [C,F,A,]4 [C,A,C]2 | %30
 [C,C]4 [C,B,]2 | [F,,F,]4 z2 |] %32
V:3
 x6 | x6 | x6 | x6 | x6 | x6 | [F,F]3- [F,B,F] F,2 | x6 | x6 | x6 | x6 | x6 | B,,4 z2 | x6 | x6 | %15
 x6 | x6 | x6 | B,,4 z2 | x6 | x6 | x6 | C3- [G,C] F,2 | x6 | x6 | x6 | x6 | x6 | B,,4 z2 | x6 | %30
 x6 | x6 |] %32
V:4
 x6 | x6 | x6 | x6 | x6 | x6 | x6 | x6 | x6 | x6 | x6 | x6 | B,4[K:bass] z2 | x4[K:treble] x2 | %14
 x6 | x6 | x6 | x6 | C4 z2 | x6 | x6 | x6 | F4 z2 | x6 | x6 | x6 | x6 | x6 | B,3- [B,E] D2 | x6 | %30
 x6 | x6 |] %32

